;FLAVOR:Marlin
;TIME:931
;Filament used: 0.908455m
;Layer height: 0.28
;MINX:105.2
;MINY:105.2
;MINZ:0.28
;MAXX:129.8
;MAXY:129.8
;MAXZ:24.92
;ZOFFSETPROCESSED
;Generated with Cura_SteamEngine 4.6.1
M140 S70
M105
M190 S70
M82 ;absolute extrusion mode
; Ender 3 Custom Start G-code
G92 E0 ; Reset Extruder
G28 ; Home all axes
G29 ; ABL
M104 S245
M105
M109 S245
G1 Z2.0 F3000 ; Move Z Axis up little to prevent scratching of Heat Bed
G1 X0.1 Y20 Z0.3 F5000.0 ; Move to start position
G1 X0.1 Y200.0 Z0.3 F1500.0 E15 ; Draw the first line
G1 X0.4 Y200.0 Z0.3 F5000.0 ; Move to side a little
G1 X0.4 Y20 Z0.3 F1500.0 E30 ; Draw the second line
G92 E0 ; Reset Extruder
G1 Z2.0 F3000 ; Move Z Axis up little to prevent scratching of Heat Bed
G1 X5 Y20 Z0.3 F5000.0 ; Move over to prevent blob squish
G92 E0
G92 E0
G1 F2400 E-6
;LAYER_COUNT:89
;LAYER:0
M117 INDICATOR-Layer0
M107
G1 F300 Z0.58 ;adjusted by z offset
G92 Z0.48 ;consider this the original z before offset
;MESH:cube.stl
G0 F6000 X105.6 Y129.4 Z0.48
;TYPE:WALL-INNER
G1 F300 Z0.28
G1 F2400 E0
G1 F900 X105.6 Y105.6 E1.47771
G1 X129.4 Y105.6 E2.95542
G1 X129.4 Y129.4 E4.43313
G1 X105.6 Y129.4 E5.91084
G0 F6000 X105.2 Y129.8
;TYPE:WALL-OUTER
G1 F900 X105.2 Y105.2 E7.43823
G1 X129.8 Y105.2 E8.96561
G1 X129.8 Y129.8 E10.49299
G1 X105.2 Y129.8 E12.02037
G0 F6000 X105.882 Y129
;MESH:NONMESH
G0 F300 X105.882 Y129 Z0.56
G0 F6000 X105.6 Y129.4
;TIME_ELAPSED:17.572577
;LAYER:1
M117 INDICATOR-Layer1
M140 S70
;TYPE:WALL-INNER
;MESH:cube.stl
G1 F1311.4 X105.6 Y105.6 E13.27267
G1 X129.4 Y105.6 E14.52496
G1 X129.4 Y129.4 E15.77726
G1 X105.6 Y129.4 E17.02956
G0 F7500 X105.2 Y129.8
;TYPE:WALL-OUTER
G1 F1049.1 X105.2 Y105.2 E18.32395
G1 X129.8 Y105.2 E19.61834
G1 X129.8 Y129.8 E20.91273
G1 X105.2 Y129.8 E22.20712
G0 F7500 X105.882 Y129
;MESH:NONMESH
G0 F300 X105.882 Y129 Z0.84
G0 F7500 X105.6 Y129.4
;TIME_ELAPSED:27.946963
;LAYER:2
M117 INDICATOR-Layer2
;TYPE:WALL-INNER
;MESH:cube.stl
G1 F1399.7 X105.6 Y105.6 E23.45942
G1 X129.4 Y105.6 E24.71172
G1 X129.4 Y129.4 E25.96402
G1 X105.6 Y129.4 E27.21631
G0 F9000 X105.2 Y129.8
;TYPE:WALL-OUTER
G1 F999.8 X105.2 Y105.2 E28.51071
G1 X129.8 Y105.2 E29.8051
G1 X129.8 Y129.8 E31.09949
G1 X105.2 Y129.8 E32.39388
G0 F9000 X105.882 Y129
;MESH:NONMESH
G0 F300 X105.882 Y129 Z1.12
G0 F9000 X105.6 Y129.4
;TIME_ELAPSED:38.330685
;LAYER:3
M117 INDICATOR-Layer3
;TYPE:WALL-INNER
;MESH:cube.stl
G1 F1399.7 X105.6 Y105.6 E33.64618
G1 X129.4 Y105.6 E34.89847
G1 X129.4 Y129.4 E36.15077
G1 X105.6 Y129.4 E37.40307
G0 F9000 X105.2 Y129.8
;TYPE:WALL-OUTER
G1 F999.8 X105.2 Y105.2 E38.69746
G1 X129.8 Y105.2 E39.99185
G1 X129.8 Y129.8 E41.28624
G1 X105.2 Y129.8 E42.58063
G0 F9000 X105.882 Y129
;MESH:NONMESH
G0 F300 X105.882 Y129 Z1.4
G0 F9000 X105.6 Y129.4
;TIME_ELAPSED:48.714408
;LAYER:4
M117 INDICATOR-Layer4
;TYPE:WALL-INNER
;MESH:cube.stl
G1 F1399.7 X105.6 Y105.6 E43.83293
G1 X129.4 Y105.6 E45.08523
G1 X129.4 Y129.4 E46.33753
G1 X105.6 Y129.4 E47.58982
G0 F9000 X105.2 Y129.8
;TYPE:WALL-OUTER
G1 F999.8 X105.2 Y105.2 E48.88421
G1 X129.8 Y105.2 E50.17861
G1 X129.8 Y129.8 E51.473
G1 X105.2 Y129.8 E52.76739
G0 F9000 X105.882 Y129
;MESH:NONMESH
G0 F300 X105.882 Y129 Z1.68
G0 F9000 X105.6 Y129.4
;TIME_ELAPSED:59.098131
;LAYER:5
M117 INDICATOR-Layer5
;TYPE:WALL-INNER
;MESH:cube.stl
G1 F1399.7 X105.6 Y105.6 E54.01969
G1 X129.4 Y105.6 E55.27198
G1 X129.4 Y129.4 E56.52428
G1 X105.6 Y129.4 E57.77658
G0 F9000 X105.2 Y129.8
;TYPE:WALL-OUTER
G1 F999.8 X105.2 Y105.2 E59.07097
G1 X129.8 Y105.2 E60.36536
G1 X129.8 Y129.8 E61.65975
G1 X105.2 Y129.8 E62.95414
G0 F9000 X105.882 Y129
;MESH:NONMESH
G0 F300 X105.882 Y129 Z1.96
G0 F9000 X105.6 Y129.4
;TIME_ELAPSED:69.481853
;LAYER:6
M117 INDICATOR-Layer6
;TYPE:WALL-INNER
;MESH:cube.stl
G1 F1399.7 X105.6 Y105.6 E64.20644
G1 X129.4 Y105.6 E65.45874
G1 X129.4 Y129.4 E66.71103
G1 X105.6 Y129.4 E67.96333
G0 F9000 X105.2 Y129.8
;TYPE:WALL-OUTER
G1 F999.8 X105.2 Y105.2 E69.25772
G1 X129.8 Y105.2 E70.55211
G1 X129.8 Y129.8 E71.84651
G1 X105.2 Y129.8 E73.1409
G0 F9000 X105.882 Y129
;MESH:NONMESH
G0 F300 X105.882 Y129 Z2.24
G0 F9000 X105.6 Y129.4
;TIME_ELAPSED:79.865576
;LAYER:7
M117 INDICATOR-Layer7
;TYPE:WALL-INNER
;MESH:cube.stl
G1 F1399.7 X105.6 Y105.6 E74.39319
G1 X129.4 Y105.6 E75.64549
G1 X129.4 Y129.4 E76.89779
G1 X105.6 Y129.4 E78.15009
G0 F9000 X105.2 Y129.8
;TYPE:WALL-OUTER
G1 F999.8 X105.2 Y105.2 E79.44448
G1 X129.8 Y105.2 E80.73887
G1 X129.8 Y129.8 E82.03326
G1 X105.2 Y129.8 E83.32765
G0 F9000 X105.882 Y129
;MESH:NONMESH
G0 F300 X105.882 Y129 Z2.52
G0 F9000 X105.6 Y129.4
;TIME_ELAPSED:90.249299
;LAYER:8
M117 INDICATOR-Layer8
;TYPE:WALL-INNER
;MESH:cube.stl
G1 F1399.7 X105.6 Y105.6 E84.57995
G1 X129.4 Y105.6 E85.83225
G1 X129.4 Y129.4 E87.08454
G1 X105.6 Y129.4 E88.33684
G0 F9000 X105.2 Y129.8
;TYPE:WALL-OUTER
G1 F999.8 X105.2 Y105.2 E89.63123
G1 X129.8 Y105.2 E90.92562
G1 X129.8 Y129.8 E92.22002
G1 X105.2 Y129.8 E93.51441
G0 F9000 X105.882 Y129
;MESH:NONMESH
G0 F300 X105.882 Y129 Z2.8
G0 F9000 X105.6 Y129.4
;TIME_ELAPSED:100.633021
;LAYER:9
M117 INDICATOR-Layer9
;TYPE:WALL-INNER
;MESH:cube.stl
G1 F1399.7 X105.6 Y105.6 E94.7667
G1 X129.4 Y105.6 E96.019
G1 X129.4 Y129.4 E97.2713
G1 X105.6 Y129.4 E98.5236
G0 F9000 X105.2 Y129.8
;TYPE:WALL-OUTER
G1 F999.8 X105.2 Y105.2 E99.81799
G1 X129.8 Y105.2 E101.11238
G1 X129.8 Y129.8 E102.40677
G1 X105.2 Y129.8 E103.70116
G0 F9000 X105.882 Y129
;MESH:NONMESH
G0 F300 X105.882 Y129 Z3.08
G0 F9000 X105.6 Y129.4
;TIME_ELAPSED:111.016744
;LAYER:10
M117 INDICATOR-Layer10
;TYPE:WALL-INNER
;MESH:cube.stl
G1 F1399.7 X105.6 Y105.6 E104.95346
G1 X129.4 Y105.6 E106.20576
G1 X129.4 Y129.4 E107.45805
G1 X105.6 Y129.4 E108.71035
G0 F9000 X105.2 Y129.8
;TYPE:WALL-OUTER
G1 F999.8 X105.2 Y105.2 E110.00474
G1 X129.8 Y105.2 E111.29913
G1 X129.8 Y129.8 E112.59352
G1 X105.2 Y129.8 E113.88792
G0 F9000 X105.882 Y129
;MESH:NONMESH
G0 F300 X105.882 Y129 Z3.36
G0 F9000 X105.6 Y129.4
;TIME_ELAPSED:121.400467
;LAYER:11
M117 INDICATOR-Layer11
;TYPE:WALL-INNER
;MESH:cube.stl
G1 F1399.7 X105.6 Y105.6 E115.14021
G1 X129.4 Y105.6 E116.39251
G1 X129.4 Y129.4 E117.64481
G1 X105.6 Y129.4 E118.8971
G0 F9000 X105.2 Y129.8
;TYPE:WALL-OUTER
G1 F999.8 X105.2 Y105.2 E120.1915
G1 X129.8 Y105.2 E121.48589
G1 X129.8 Y129.8 E122.78028
G1 X105.2 Y129.8 E124.07467
G0 F9000 X105.882 Y129
;MESH:NONMESH
G0 F300 X105.882 Y129 Z3.64
G0 F9000 X105.6 Y129.4
;TIME_ELAPSED:131.784190
;LAYER:12
M117 INDICATOR-Layer12
;TYPE:WALL-INNER
;MESH:cube.stl
G1 F1399.7 X105.6 Y105.6 E125.32697
G1 X129.4 Y105.6 E126.57926
G1 X129.4 Y129.4 E127.83156
G1 X105.6 Y129.4 E129.08386
G0 F9000 X105.2 Y129.8
;TYPE:WALL-OUTER
G1 F999.8 X105.2 Y105.2 E130.37825
G1 X129.8 Y105.2 E131.67264
G1 X129.8 Y129.8 E132.96703
G1 X105.2 Y129.8 E134.26142
G0 F9000 X105.882 Y129
;MESH:NONMESH
G0 F300 X105.882 Y129 Z3.92
G0 F9000 X105.6 Y129.4
;TIME_ELAPSED:142.167912
;LAYER:13
M117 INDICATOR-Layer13
;TYPE:WALL-INNER
;MESH:cube.stl
G1 F1399.7 X105.6 Y105.6 E135.51372
G1 X129.4 Y105.6 E136.76602
G1 X129.4 Y129.4 E138.01832
G1 X105.6 Y129.4 E139.27061
G0 F9000 X105.2 Y129.8
;TYPE:WALL-OUTER
G1 F999.8 X105.2 Y105.2 E140.56501
G1 X129.8 Y105.2 E141.8594
G1 X129.8 Y129.8 E143.15379
G1 X105.2 Y129.8 E144.44818
G0 F9000 X105.882 Y129
;MESH:NONMESH
G0 F300 X105.882 Y129 Z4.2
G0 F9000 X105.6 Y129.4
;TIME_ELAPSED:152.551635
;LAYER:14
M117 INDICATOR-Layer14
;TYPE:WALL-INNER
;MESH:cube.stl
G1 F1399.7 X105.6 Y105.6 E145.70048
G1 X129.4 Y105.6 E146.95277
G1 X129.4 Y129.4 E148.20507
G1 X105.6 Y129.4 E149.45737
G0 F9000 X105.2 Y129.8
;TYPE:WALL-OUTER
G1 F999.8 X105.2 Y105.2 E150.75176
G1 X129.8 Y105.2 E152.04615
G1 X129.8 Y129.8 E153.34054
G1 X105.2 Y129.8 E154.63493
G0 F9000 X105.882 Y129
;MESH:NONMESH
G0 F300 X105.882 Y129 Z4.48
G0 F9000 X105.6 Y129.4
;TIME_ELAPSED:162.935358
;LAYER:15
M117 INDICATOR-Layer15
;TYPE:WALL-INNER
;MESH:cube.stl
G1 F1399.7 X105.6 Y105.6 E155.88723
G1 X129.4 Y105.6 E157.13953
G1 X129.4 Y129.4 E158.39183
G1 X105.6 Y129.4 E159.64412
G0 F9000 X105.2 Y129.8
;TYPE:WALL-OUTER
G1 F999.8 X105.2 Y105.2 E160.93851
G1 X129.8 Y105.2 E162.23291
G1 X129.8 Y129.8 E163.5273
G1 X105.2 Y129.8 E164.82169
G0 F9000 X105.882 Y129
;MESH:NONMESH
G0 F300 X105.882 Y129 Z4.76
G0 F9000 X105.6 Y129.4
;TIME_ELAPSED:173.319080
;LAYER:16
M117 INDICATOR-Layer16
;TYPE:WALL-INNER
;MESH:cube.stl
G1 F1399.7 X105.6 Y105.6 E166.07399
G1 X129.4 Y105.6 E167.32628
G1 X129.4 Y129.4 E168.57858
G1 X105.6 Y129.4 E169.83088
G0 F9000 X105.2 Y129.8
;TYPE:WALL-OUTER
G1 F999.8 X105.2 Y105.2 E171.12527
G1 X129.8 Y105.2 E172.41966
G1 X129.8 Y129.8 E173.71405
G1 X105.2 Y129.8 E175.00844
G0 F9000 X105.882 Y129
;MESH:NONMESH
G0 F300 X105.882 Y129 Z5.04
G0 F9000 X105.6 Y129.4
;TIME_ELAPSED:183.702803
;LAYER:17
M117 INDICATOR-Layer17
;TYPE:WALL-INNER
;MESH:cube.stl
G1 F1399.7 X105.6 Y105.6 E176.26074
G1 X129.4 Y105.6 E177.51304
G1 X129.4 Y129.4 E178.76533
G1 X105.6 Y129.4 E180.01763
G0 F9000 X105.2 Y129.8
;TYPE:WALL-OUTER
G1 F999.8 X105.2 Y105.2 E181.31202
G1 X129.8 Y105.2 E182.60641
G1 X129.8 Y129.8 E183.90081
G1 X105.2 Y129.8 E185.1952
G0 F9000 X105.882 Y129
;MESH:NONMESH
G0 F300 X105.882 Y129 Z5.32
G0 F9000 X105.6 Y129.4
;TIME_ELAPSED:194.086526
;LAYER:18
M117 INDICATOR-Layer18
;TYPE:WALL-INNER
;MESH:cube.stl
G1 F1399.7 X105.6 Y105.6 E186.44749
G1 X129.4 Y105.6 E187.69979
G1 X129.4 Y129.4 E188.95209
G1 X105.6 Y129.4 E190.20439
G0 F9000 X105.2 Y129.8
;TYPE:WALL-OUTER
G1 F999.8 X105.2 Y105.2 E191.49878
G1 X129.8 Y105.2 E192.79317
G1 X129.8 Y129.8 E194.08756
G1 X105.2 Y129.8 E195.38195
G0 F9000 X105.882 Y129
;MESH:NONMESH
G0 F300 X105.882 Y129 Z5.6
G0 F9000 X105.6 Y129.4
;TIME_ELAPSED:204.470248
;LAYER:19
M117 INDICATOR-Layer19
;TYPE:WALL-INNER
;MESH:cube.stl
G1 F1399.7 X105.6 Y105.6 E196.63425
G1 X129.4 Y105.6 E197.88655
G1 X129.4 Y129.4 E199.13884
G1 X105.6 Y129.4 E200.39114
G0 F9000 X105.2 Y129.8
;TYPE:WALL-OUTER
G1 F999.8 X105.2 Y105.2 E201.68553
G1 X129.8 Y105.2 E202.97992
G1 X129.8 Y129.8 E204.27431
G1 X105.2 Y129.8 E205.56871
G0 F9000 X105.882 Y129
;MESH:NONMESH
G0 F300 X105.882 Y129 Z5.88
G0 F9000 X105.6 Y129.4
;TIME_ELAPSED:214.853971
;LAYER:20
M117 INDICATOR-Layer20
;TYPE:WALL-INNER
;MESH:cube.stl
G1 F1399.7 X105.6 Y105.6 E206.821
G1 X129.4 Y105.6 E208.0733
G1 X129.4 Y129.4 E209.3256
G1 X105.6 Y129.4 E210.5779
G0 F9000 X105.2 Y129.8
;TYPE:WALL-OUTER
G1 F999.8 X105.2 Y105.2 E211.87229
G1 X129.8 Y105.2 E213.16668
G1 X129.8 Y129.8 E214.46107
G1 X105.2 Y129.8 E215.75546
G0 F9000 X105.882 Y129
;MESH:NONMESH
G0 F300 X105.882 Y129 Z6.16
G0 F9000 X105.6 Y129.4
;TIME_ELAPSED:225.237694
;LAYER:21
M117 INDICATOR-Layer21
;TYPE:WALL-INNER
;MESH:cube.stl
G1 F1399.7 X105.6 Y105.6 E217.00776
G1 X129.4 Y105.6 E218.26006
G1 X129.4 Y129.4 E219.51235
G1 X105.6 Y129.4 E220.76465
G0 F9000 X105.2 Y129.8
;TYPE:WALL-OUTER
G1 F999.8 X105.2 Y105.2 E222.05904
G1 X129.8 Y105.2 E223.35343
G1 X129.8 Y129.8 E224.64782
G1 X105.2 Y129.8 E225.94222
G0 F9000 X105.882 Y129
;MESH:NONMESH
G0 F300 X105.882 Y129 Z6.44
G0 F9000 X105.6 Y129.4
;TIME_ELAPSED:235.621417
;LAYER:22
M117 INDICATOR-Layer22
;TYPE:WALL-INNER
;MESH:cube.stl
G1 F1399.7 X105.6 Y105.6 E227.19451
G1 X129.4 Y105.6 E228.44681
G1 X129.4 Y129.4 E229.69911
G1 X105.6 Y129.4 E230.9514
G0 F9000 X105.2 Y129.8
;TYPE:WALL-OUTER
G1 F999.8 X105.2 Y105.2 E232.2458
G1 X129.8 Y105.2 E233.54019
G1 X129.8 Y129.8 E234.83458
G1 X105.2 Y129.8 E236.12897
G0 F9000 X105.882 Y129
;MESH:NONMESH
G0 F300 X105.882 Y129 Z6.72
G0 F9000 X105.6 Y129.4
;TIME_ELAPSED:246.005139
;LAYER:23
M117 INDICATOR-Layer23
;TYPE:WALL-INNER
;MESH:cube.stl
G1 F1399.7 X105.6 Y105.6 E237.38127
G1 X129.4 Y105.6 E238.63356
G1 X129.4 Y129.4 E239.88586
G1 X105.6 Y129.4 E241.13816
G0 F9000 X105.2 Y129.8
;TYPE:WALL-OUTER
G1 F999.8 X105.2 Y105.2 E242.43255
G1 X129.8 Y105.2 E243.72694
G1 X129.8 Y129.8 E245.02133
G1 X105.2 Y129.8 E246.31572
G0 F9000 X105.882 Y129
;MESH:NONMESH
G0 F300 X105.882 Y129 Z7
G0 F9000 X105.6 Y129.4
;TIME_ELAPSED:256.388862
;LAYER:24
M117 INDICATOR-Layer24
;TYPE:WALL-INNER
;MESH:cube.stl
G1 F1399.7 X105.6 Y105.6 E247.56802
G1 X129.4 Y105.6 E248.82032
G1 X129.4 Y129.4 E250.07262
G1 X105.6 Y129.4 E251.32491
G0 F9000 X105.2 Y129.8
;TYPE:WALL-OUTER
G1 F999.8 X105.2 Y105.2 E252.6193
G1 X129.8 Y105.2 E253.9137
G1 X129.8 Y129.8 E255.20809
G1 X105.2 Y129.8 E256.50248
G0 F9000 X105.882 Y129
;MESH:NONMESH
G0 F300 X105.882 Y129 Z7.28
G0 F9000 X105.6 Y129.4
;TIME_ELAPSED:266.772585
;LAYER:25
M117 INDICATOR-Layer25
;TYPE:WALL-INNER
;MESH:cube.stl
G1 F1399.7 X105.6 Y105.6 E257.75478
G1 X129.4 Y105.6 E259.00707
G1 X129.4 Y129.4 E260.25937
G1 X105.6 Y129.4 E261.51167
G0 F9000 X105.2 Y129.8
;TYPE:WALL-OUTER
G1 F999.8 X105.2 Y105.2 E262.80606
G1 X129.8 Y105.2 E264.10045
G1 X129.8 Y129.8 E265.39484
G1 X105.2 Y129.8 E266.68923
G0 F9000 X105.882 Y129
;MESH:NONMESH
G0 F300 X105.882 Y129 Z7.56
G0 F9000 X105.6 Y129.4
;TIME_ELAPSED:277.156307
;LAYER:26
M117 INDICATOR-Layer26
;TYPE:WALL-INNER
;MESH:cube.stl
G1 F1399.7 X105.6 Y105.6 E267.94153
G1 X129.4 Y105.6 E269.19383
G1 X129.4 Y129.4 E270.44613
G1 X105.6 Y129.4 E271.69842
G0 F9000 X105.2 Y129.8
;TYPE:WALL-OUTER
G1 F999.8 X105.2 Y105.2 E272.99281
G1 X129.8 Y105.2 E274.28721
G1 X129.8 Y129.8 E275.5816
G1 X105.2 Y129.8 E276.87599
G0 F9000 X105.882 Y129
;MESH:NONMESH
G0 F300 X105.882 Y129 Z7.84
G0 F9000 X105.6 Y129.4
;TIME_ELAPSED:287.540030
;LAYER:27
M117 INDICATOR-Layer27
;TYPE:WALL-INNER
;MESH:cube.stl
G1 F1399.7 X105.6 Y105.6 E278.12828
G1 X129.4 Y105.6 E279.38058
G1 X129.4 Y129.4 E280.63288
G1 X105.6 Y129.4 E281.88518
G0 F9000 X105.2 Y129.8
;TYPE:WALL-OUTER
G1 F999.8 X105.2 Y105.2 E283.17957
G1 X129.8 Y105.2 E284.47396
G1 X129.8 Y129.8 E285.76835
G1 X105.2 Y129.8 E287.06274
G0 F9000 X105.882 Y129
;MESH:NONMESH
G0 F300 X105.882 Y129 Z8.12
G0 F9000 X105.6 Y129.4
;TIME_ELAPSED:297.923753
;LAYER:28
M117 INDICATOR-Layer28
;TYPE:WALL-INNER
;MESH:cube.stl
G1 F1399.7 X105.6 Y105.6 E288.31504
G1 X129.4 Y105.6 E289.56734
G1 X129.4 Y129.4 E290.81963
G1 X105.6 Y129.4 E292.07193
G0 F9000 X105.2 Y129.8
;TYPE:WALL-OUTER
G1 F999.8 X105.2 Y105.2 E293.36632
G1 X129.8 Y105.2 E294.66071
G1 X129.8 Y129.8 E295.95511
G1 X105.2 Y129.8 E297.2495
G0 F9000 X105.882 Y129
;MESH:NONMESH
G0 F300 X105.882 Y129 Z8.4
G0 F9000 X105.6 Y129.4
;TIME_ELAPSED:308.307475
;LAYER:29
M117 INDICATOR-Layer29
;TYPE:WALL-INNER
;MESH:cube.stl
G1 F1399.7 X105.6 Y105.6 E298.50179
G1 X129.4 Y105.6 E299.75409
G1 X129.4 Y129.4 E301.00639
G1 X105.6 Y129.4 E302.25869
G0 F9000 X105.2 Y129.8
;TYPE:WALL-OUTER
G1 F999.8 X105.2 Y105.2 E303.55308
G1 X129.8 Y105.2 E304.84747
G1 X129.8 Y129.8 E306.14186
G1 X105.2 Y129.8 E307.43625
G0 F9000 X105.882 Y129
;MESH:NONMESH
G0 F300 X105.882 Y129 Z8.68
G0 F9000 X105.6 Y129.4
;TIME_ELAPSED:318.691198
;LAYER:30
M117 INDICATOR-Layer30
;TYPE:WALL-INNER
;MESH:cube.stl
G1 F1399.7 X105.6 Y105.6 E308.68855
G1 X129.4 Y105.6 E309.94085
G1 X129.4 Y129.4 E311.19314
G1 X105.6 Y129.4 E312.44544
G0 F9000 X105.2 Y129.8
;TYPE:WALL-OUTER
G1 F999.8 X105.2 Y105.2 E313.73983
G1 X129.8 Y105.2 E315.03422
G1 X129.8 Y129.8 E316.32861
G1 X105.2 Y129.8 E317.62301
G0 F9000 X105.882 Y129
;MESH:NONMESH
G0 F300 X105.882 Y129 Z8.96
G0 F9000 X105.6 Y129.4
;TIME_ELAPSED:329.074921
;LAYER:31
M117 INDICATOR-Layer31
;TYPE:WALL-INNER
;MESH:cube.stl
G1 F1399.7 X105.6 Y105.6 E318.8753
G1 X129.4 Y105.6 E320.1276
G1 X129.4 Y129.4 E321.3799
G1 X105.6 Y129.4 E322.63219
G0 F9000 X105.2 Y129.8
;TYPE:WALL-OUTER
G1 F999.8 X105.2 Y105.2 E323.92659
G1 X129.8 Y105.2 E325.22098
G1 X129.8 Y129.8 E326.51537
G1 X105.2 Y129.8 E327.80976
G0 F9000 X105.882 Y129
;MESH:NONMESH
G0 F300 X105.882 Y129 Z9.24
G0 F9000 X105.6 Y129.4
;TIME_ELAPSED:339.458643
;LAYER:32
M117 INDICATOR-Layer32
;TYPE:WALL-INNER
;MESH:cube.stl
G1 F1399.7 X105.6 Y105.6 E329.06206
G1 X129.4 Y105.6 E330.31435
G1 X129.4 Y129.4 E331.56665
G1 X105.6 Y129.4 E332.81895
G0 F9000 X105.2 Y129.8
;TYPE:WALL-OUTER
G1 F999.8 X105.2 Y105.2 E334.11334
G1 X129.8 Y105.2 E335.40773
G1 X129.8 Y129.8 E336.70212
G1 X105.2 Y129.8 E337.99651
G0 F9000 X105.882 Y129
;MESH:NONMESH
G0 F300 X105.882 Y129 Z9.52
G0 F9000 X105.6 Y129.4
;TIME_ELAPSED:349.842366
;LAYER:33
M117 INDICATOR-Layer33
;TYPE:WALL-INNER
;MESH:cube.stl
